svgs/sharp-regular/battery-three-quarters.svg

<svg xmlns="http://www.w3.org/2000/svg" viewBox="0 0 576 512"><!--! Font Awesome Pro 6.6.0 by @fontawesome - https://fontawesome.com License - https://fontawesome.com/license (Commercial License) Copyright 2024 Fonticons, Inc. --><path d="M496 144l0 224L48 368l0-224 448 0zM48 96L0 96l0 48L0 368l0 48 48 0 448 0 48 0 0-48 0-48 32 0 0-128-32 0 0-48 0-48-48 0L48 96zm304 96L96 192l0 128 256 0 0-128z"/></svg>

<svg xmlns="http://www.w3.org/2000/svg" viewBox="0 0 576 512"><!--! Font Awesome Pro 6.4.2 by @fontawesome - https://fontawesome.com License - https://fontawesome.com/license (Commercial License) Copyright 2023 Fonticons, Inc. --><path d="M496 144V368H48V144H496zM48 96H0v48V368v48H48 496h48V368 320h32V192H544V144 96H496 48zm304 96H96V320H352V192z"/></svg>
